public/images/close.svg

<svg width="26" height="26" viewBox="0 0 26 26" fill="none" xmlns="http://www.w3.org/2000/svg">
<path d="M0.6 13.0005C0.6 6.15229 6.15071 0.6 12.9977 0.6C19.8485 0.6 25.4 6.15246 25.4 13.0005C25.4 19.8466 19.8485 25.4 12.9977 25.4C6.15068 25.4 0.6 19.8477 0.6 13.0005ZM17.9754 17.9794C18.7822 17.1736 18.7583 15.8639 17.9367 15.082C17.4197 14.59 16.8107 14.0036 16.3323 13.5233C16.1329 13.3232 15.9602 13.1454 15.8277 13.0026C15.9597 12.8596 16.1319 12.6818 16.3311 12.4814C16.8084 12.0013 17.4163 11.4161 17.9331 10.9247C18.7563 10.142 18.7818 8.83008 17.9744 8.02194C17.1693 7.21612 15.8613 7.23739 15.0773 8.05637C14.5826 8.57316 13.9925 9.18307 13.5104 9.66251C13.3138 9.85803 13.1387 10.0283 12.9972 10.1604C12.8555 10.0279 12.6801 9.85714 12.4832 9.66109C12.0006 9.18077 11.41 8.56996 10.9154 8.05301C10.1334 7.23577 8.82859 7.21438 8.02527 8.01806C7.21531 8.82839 7.24626 10.1445 8.07431 10.9245C8.5902 11.4105 9.19443 11.9881 9.66798 12.4652C9.87498 12.6738 10.0517 12.8579 10.1836 13.004C10.0515 13.15 9.8746 13.3338 9.66755 13.542C9.19348 14.0189 8.58873 14.5964 8.07274 15.0821C7.24539 15.8609 7.21521 17.1756 8.025 17.984C8.82909 18.7866 10.1337 18.7616 10.9128 17.9432C11.4043 17.4268 11.9911 16.8176 12.4725 16.339C12.6745 16.1382 12.8537 15.9645 12.9976 15.8317C13.1411 15.964 13.3199 16.137 13.5214 16.3372C14.0021 16.8146 14.588 17.4225 15.0794 17.9387C15.8607 18.7594 17.1691 18.7846 17.9754 17.9794Z" fill="url(#paint0_linear_1509_6793)" stroke="url(#paint1_linear_1509_6793)" stroke-width="1.2"/>
<defs>
<linearGradient id="paint0_linear_1509_6793" x1="0" y1="13" x2="26" y2="13" gradientUnits="userSpaceOnUse">
<stop stop-color="#084196"/>
<stop offset="1" stop-color="#00C0FF"/>
</linearGradient>
<linearGradient id="paint1_linear_1509_6793" x1="0" y1="13" x2="26" y2="13" gradientUnits="userSpaceOnUse">
<stop stop-color="#084398"/>
<stop offset="1" stop-color="#00BEFD"/>
</linearGradient>
</defs>
</svg>

<svg xmlns="http://www.w3.org/2000/svg" width="26" height="26" fill="none"><path fill="url(#a)" stroke="url(#b)" stroke-width="1.2" d="M.6 13C.6 6.153 6.15.6 12.998.6 19.848.6 25.4 6.152 25.4 13c0 6.847-5.551 12.4-12.402 12.4C6.15 25.4.6 19.848.6 13Zm17.375 4.98a2.024 2.024 0 0 0-.038-2.898 90 90 0 0 1-1.605-1.559c-.2-.2-.372-.378-.504-.52.132-.143.304-.321.503-.522a86 86 0 0 1 1.602-1.556 2.03 2.03 0 0 0 .041-2.903 2.027 2.027 0 0 0-2.897.034 98 98 0 0 1-1.567 1.607c-.196.195-.371.365-.513.497a24 24 0 0 1-.514-.499 99 99 0 0 1-1.568-1.608 2.02 2.02 0 0 0-2.89-.035c-.81.81-.779 2.127.05 2.906.515.487 1.12 1.064 1.593 1.541.207.209.384.393.516.539-.132.146-.31.33-.516.538a72 72 0 0 1-1.595 1.54 2.02 2.02 0 0 0-.048 2.902 2.02 2.02 0 0 0 2.888-.04 87 87 0 0 1 1.56-1.605c.201-.2.38-.374.525-.507.143.132.322.305.523.505a86 86 0 0 1 1.558 1.602c.782.82 2.09.846 2.896.04Z"/><defs><linearGradient id="a" x1="0" x2="26" y1="13" y2="13" gradientUnits="userSpaceOnUse"><stop stop-color="#084196"/><stop offset="1" stop-color="#00C0FF"/></linearGradient><linearGradient id="b" x1="0" x2="26" y1="13" y2="13" gradientUnits="userSpaceOnUse"><stop stop-color="#084398"/><stop offset="1" stop-color="#00BEFD"/></linearGradient></defs></svg>
